X: 21469
T: Kevin McHugh's
R: jig
M: 6/8
K: Gmajor
|:A|BGd ded|BAB GAB|AGE DEG|AGE DEG|
B2d ded|BAB GAB|AGE DEG|ABA G2:|
|:A|BGG GAB|cAA ABc|BAG GFG|ABc d3|
BAB GAB|cec BdB|AGE DEG|ABA G2:|

